images/phy_intro/speed_with_rot.svg

<svg width="501" height="209" xmlns="http://www.w3.org/2000/svg" xmlns:xlink="http://www.w3.org/1999/xlink" overflow="hidden"><defs><clipPath id="clip0"><rect x="68" y="123" width="501" height="209"/></clipPath></defs><g clip-path="url(#clip0)" transform="translate(-68 -123)"><path d="M0.500098-1.44671 78.6358 25.5632 77.6356 28.4566-0.500098 1.44671ZM72.3665 17.9481 81.0067 28.0023 68.0019 30.5743C67.1726 30.7384 66.3673 30.199 66.2033 29.3697 66.0393 28.5404 66.5786 27.7351 67.4079 27.5711L77.8385 25.5082 76.9746 28.0075 70.0447 19.9434C69.4937 19.3022 69.5668 18.3358 70.2079 17.7848 70.8491 17.2338 71.8155 17.3069 72.3665 17.9481Z" fill="#FFFFFF" transform="matrix(1 0 0 -1 144.5 228.5)"/><path d="M118.597 153.052 226.309 203.324 176.036 311.036 68.3246 260.764 118.597 153.052Z" stroke="#3465A4" stroke-width="0" stroke-linejoin="round" stroke-miterlimit="10" fill="#5983B0" fill-rule="evenodd"/><path d="M146 220.5C140.753 220.5 136.5 224.753 136.5 230 136.5 235.247 140.753 239.5 146 239.5 151.247 239.5 155.5 235.247 155.5 230 155.5 224.753 151.247 220.5 146 220.5Z" stroke="#3465A4" stroke-width="0" stroke-linejoin="round" stroke-miterlimit="10" fill="#FFFFFF" fill-rule="evenodd"/><text font-family="Arial,Arial_MSFontService,sans-serif" font-weight="400" font-size="24" transform="translate(240.336 210)">P<tspan font-size="24" x="-124.687" y="41">X</tspan></text><path d="M0.039531-1.99961 93.2794-0.156318 93.2003 3.8429-0.039531 1.99961ZM91.3588-4.19507 103.238 2.04094 91.1217 7.80259Z" fill="#ED7D31" transform="matrix(1 0 0 -1 145 231.041)"/><text font-family="Arial,Arial_MSFontService,sans-serif" font-weight="400" font-size="24" transform="translate(219.107 261)">V</text><path d="M225 192.5C219.753 192.5 215.5 196.753 215.5 202 215.5 207.247 219.753 211.5 225 211.5 230.247 211.5 234.5 207.247 234.5 202 234.5 196.753 230.247 192.5 225 192.5Z" stroke="#3465A4" stroke-width="0" stroke-linejoin="round" stroke-miterlimit="10" fill="#FFFFFF" fill-rule="evenodd"/><path d="M380.207 172.611 487.919 222.884 437.646 330.595 329.934 280.323 380.207 172.611Z" stroke="#3465A4" stroke-width="0" stroke-linejoin="round" stroke-miterlimit="10" fill="#5983B0" fill-rule="evenodd"/><path d="M487 214.5C481.753 214.5 477.5 218.753 477.5 224 477.5 229.247 481.753 233.5 487 233.5 492.247 233.5 496.5 229.247 496.5 224 496.5 218.753 492.247 214.5 487 214.5Z" stroke="#3465A4" stroke-width="0" stroke-linejoin="round" stroke-miterlimit="10" fill="#FFFFFF" fill-rule="evenodd"/><path d="M407 240.5C401.753 240.5 397.5 244.753 397.5 250 397.5 255.247 401.753 259.5 407 259.5 412.247 259.5 416.5 255.247 416.5 250 416.5 244.753 412.247 240.5 407 240.5Z" stroke="#3465A4" stroke-width="0" stroke-linejoin="round" stroke-miterlimit="10" fill="#FFFFFF" fill-rule="evenodd"/><text font-family="Arial,Arial_MSFontService,sans-serif" font-weight="400" font-size="24" transform="translate(501.946 229)">P<tspan font-size="24" x="-124.687" y="42">X</tspan><tspan font-size="24" x="-122.225" y="-64">ω</tspan><tspan font-family="Microsoft JhengHei,Microsoft JhengHei_MSFontService,sans-serif" font-size="24" x="-103.485" y="-64">×</tspan><tspan font-size="24" x="-85.7914" y="-64">R</tspan></text><path d="M0.703361-1.87224 73.1532 25.3456 71.7465 29.0901-0.703361 1.87224ZM72.6878 20.8978 81.8111 30.7347 68.4676 32.1313Z" fill="#ED7D31" transform="matrix(1 0 0 -1 405 250.735)"/><path d="M477 169.5C512.622 169.5 541.5 204.87 541.5 248.5" stroke="#4472C4" stroke-width="3" stroke-miterlimit="8" fill="none" fill-rule="evenodd"/><path d="M-3.6715-4.00009 4.3284 0.000104987-3.6717 3.99991Z" fill="#4472C4" transform="matrix(-1 0 0 1 476.828 169.5)"/><text font-family="Arial,Arial_MSFontService,sans-serif" font-weight="400" font-size="24" transform="translate(424.213 232)">R</text><path d="M484.347 221.824 452.867 174.436 456.199 172.223 487.679 219.61ZM450.642 178.316 449 165 460.638 171.675Z" fill="#00B0F0"/><text font-family="Arial,Arial_MSFontService,sans-serif" font-weight="400" font-size="24" transform="translate(528.951 197)">ω</text></g></svg>

<svg width="501" height="209" xmlns="http://www.w3.org/2000/svg" overflow="hidden"><defs><clipPath id="a"><path d="M68 123h501v209H68z"/></clipPath></defs><g clip-path="url(#a)" transform="translate(-68 -123)"><path d="m145 229.947 78.136-27.01-1-2.894L144 227.053Zm71.867-19.395 8.64-10.054-13.005-2.572a1.53 1.53 0 1 0-.594 3.003l10.43 2.063-.863-2.5-6.93 8.065a1.53 1.53 0 0 0 2.322 1.995Z" fill="#FFF"/><path d="m118.597 153.052 107.712 50.272-50.273 107.712-107.711-50.272 50.272-107.712Z" fill="#5983B0" fill-rule="evenodd"/><path d="M146 220.5a9.5 9.5 0 0 0-9.5 9.5 9.5 9.5 0 0 0 9.5 9.5 9.5 9.5 0 0 0 9.5-9.5 9.5 9.5 0 0 0-9.5-9.5Z" fill="#FFF" fill-rule="evenodd"/><text font-family="Arial,Arial_MSFontService,sans-serif" font-weight="400" font-size="24" transform="translate(240.336 210)">P<tspan x="-124.687" y="41">X</tspan></text><path d="m145.04 233.04 93.24-1.843-.08-3.999-93.24 1.843Zm91.319 2.196L248.238 229l-12.116-5.762Z" fill="#ED7D31"/><text font-family="Arial,Arial_MSFontService,sans-serif" font-weight="400" font-size="24" transform="translate(219.107 261)">V</text><path d="M225 192.5a9.5 9.5 0 0 0-9.5 9.5 9.5 9.5 0 0 0 9.5 9.5 9.5 9.5 0 0 0 9.5-9.5 9.5 9.5 0 0 0-9.5-9.5Z" fill="#FFF" fill-rule="evenodd"/><path d="m380.207 172.611 107.712 50.273-50.273 107.711-107.712-50.272 50.273-107.712Z" fill="#5983B0" fill-rule="evenodd"/><path d="M487 214.5a9.5 9.5 0 0 0-9.5 9.5 9.5 9.5 0 0 0 9.5 9.5 9.5 9.5 0 0 0 9.5-9.5 9.5 9.5 0 0 0-9.5-9.5ZM407 240.5a9.5 9.5 0 0 0-9.5 9.5 9.5 9.5 0 0 0 9.5 9.5 9.5 9.5 0 0 0 9.5-9.5 9.5 9.5 0 0 0-9.5-9.5Z" fill="#FFF" fill-rule="evenodd"/><text font-family="Arial,Arial_MSFontService,sans-serif" font-weight="400" font-size="24" transform="translate(501.946 229)">P<tspan x="-124.687" y="42">X</tspan><tspan x="-122.225" y="-64">ω</tspan><tspan font-family="Microsoft JhengHei,Microsoft JhengHei_MSFontService,sans-serif" x="-103.485" y="-64">×</tspan><tspan x="-85.791" y="-64">R</tspan></text><path d="m405.703 252.607 72.45-27.218-1.407-3.744-72.45 27.218Zm71.985-22.77L486.81 220l-13.343-1.396Z" fill="#ED7D31"/><path d="M477 169.5c35.622 0 64.5 35.37 64.5 79" stroke="#4472C4" stroke-width="3" stroke-miterlimit="8" fill="none"/><path d="m480.5 165.5-8 4 8 4Z" fill="#4472C4"/><text font-family="Arial,Arial_MSFontService,sans-serif" font-weight="400" font-size="24" transform="translate(424.213 232)">R</text><path d="m484.347 221.824-31.48-47.388 3.332-2.213 31.48 47.387Zm-33.705-43.508L449 165l11.638 6.675Z" fill="#00B0F0"/><text font-family="Arial,Arial_MSFontService,sans-serif" font-weight="400" font-size="24" transform="translate(528.951 197)">ω</text></g></svg>
